X:421
T:Memories of Fr. Charlie MacDonald
R:Air
M:3/4
L:1/4
%%printtempo 0
Q:90
K:D
A|d2(f/e/)|d2c|(Bd)B| A2(uA/B/)|d2(ue/f/)| b2f|
f2 e/d/| e2A |d2(f/e/)| d2c| (Bd)B| A2(uA/B/)| d2(ue/f/)|
b2f| e3| d2 ::f/g/| a2b/a/| f2 e/d/| BdB| A2B|
d2e/f/| a2f| f2 e/d/|1 e2 (uf/g/)| a2b/a/|f2 e/d/| BdB| A2A/B/|
d2e/f/| a2f| e3| d2 :|2 e2(uf/g/)| a2A|A2=c| B<dB |A2A/B/|
d2e/f/| a2f| e3| d2 z|]
